icons/op-status-reporting-24.svg

<svg width="24" height="24" viewBox="0 0 24 24" fill="none" xmlns="http://www.w3.org/2000/svg">
<path d="M15.6935 14.7397V13.1115L18 9.94912H15.6935V8.35225L18 5.18982H15.6935V5.1272C15.6935 4.50098 15.1013 4 14.3532 4H9.64675C8.8987 4 8.30649 4.50098 8.30649 5.1272V5.18982H6L8.30649 8.35225V9.94912H6L8.30649 13.1115V14.7397H6L8.30649 17.8708V18.9041C8.30649 19.5303 8.8987 20 9.64675 20H14.3532C15.1013 20 15.6935 19.5303 15.6935 18.9041V17.8708L18 14.7397H15.6935ZM14.1351 12.047C14.1351 13.2055 13.2 14.1448 12.0468 14.1448C10.8935 14.1448 9.95844 13.2055 9.95844 12.047C9.95844 10.8885 10.8935 9.94912 12.0468 9.94912C13.2 9.94912 14.1351 10.8885 14.1351 12.047ZM14.1351 7.28767C14.1351 8.44618 13.2 9.38552 12.0468 9.38552C10.8935 9.38552 9.95844 8.44618 9.95844 7.28767C9.95844 6.12916 10.8935 5.18982 12.0468 5.18982C13.2 5.18982 14.1351 6.12916 14.1351 7.28767ZM12.0468 18.9354C10.8935 18.9354 9.95844 17.9961 9.95844 16.8376C9.95844 15.6791 10.8935 14.7397 12.0468 14.7397C13.2 14.7397 14.1351 15.6791 14.1351 16.8376C14.1351 17.9961 13.2 18.9354 12.0468 18.9354Z" fill="black"/>
</svg>

<svg xmlns="http://www.w3.org/2000/svg" width="24" height="24" viewBox="0 0 24 24"><path d="M15.694 14.74v-1.629L18 9.949h-2.306V8.352L18 5.19h-2.306v-.063c0-.626-.593-1.127-1.341-1.127H9.647c-.748 0-1.341.501-1.341 1.127v.063H6l2.306 3.162v1.597H6l2.306 3.162v1.629H6l2.306 3.131v1.033c0 .626.593 1.096 1.341 1.096h4.706c.748 0 1.341-.47 1.341-1.096v-1.033L18 14.74h-2.306Zm-1.559-2.693a2.093 2.093 0 0 1-2.088 2.098 2.093 2.093 0 0 1-2.089-2.098c0-1.158.935-2.098 2.089-2.098 1.153 0 2.088.94 2.088 2.098Zm0-4.759a2.094 2.094 0 0 1-2.088 2.098 2.094 2.094 0 0 1-2.089-2.098c0-1.159.935-2.098 2.089-2.098 1.153 0 2.088.939 2.088 2.098Zm-2.088 11.647a2.093 2.093 0 0 1-2.089-2.097c0-1.159.935-2.098 2.089-2.098 1.153 0 2.088.939 2.088 2.098a2.093 2.093 0 0 1-2.088 2.097Z"/></svg>
